X: 3
T: Rakish Paddy
R: reel
M: 4/4
L: 1/8
K: Ador
c2 gc acgc|c2 gc BAGB|d2 ad bdad|d2 ad cBAB|c2 gc acgc|f2 fe defg|afge fde^c|dcAG FGAB:|


Tune 86	Setting 12603

